dist/assets/img/svg/icon-logout.svg

<svg width="26" height="26" viewBox="0 0 26 26"  xmlns="http://www.w3.org/2000/svg">
<g id="Exit to app" clip-path="url(#clip0_228_1083)">
<path id="Vector" d="M10.9308 16.8892L12.4583 18.4167L17.875 13L12.4583 7.58333L10.9308 9.11083L13.7258 11.9167H3.25V14.0833H13.7258L10.9308 16.8892ZM20.5833 3.25H5.41667C4.21417 3.25 3.25 4.225 3.25 5.41667V9.75H5.41667V5.41667H20.5833V20.5833H5.41667V16.25H3.25V20.5833C3.25 21.775 4.21417 22.75 5.41667 22.75H20.5833C21.775 22.75 22.75 21.775 22.75 20.5833V5.41667C22.75 4.225 21.775 3.25 20.5833 3.25Z" />
</g>
<defs>
<clipPath id="clip0_228_1083">
<rect width="26" height="26" fill="white"/>
</clipPath>
</defs>
</svg>

<svg width="26" height="26" xmlns="http://www.w3.org/2000/svg"><g clip-path="url(#clip0_228_1083)"><path d="M10.93 16.89l1.528 1.527L17.875 13l-5.417-5.417-1.527 1.528 2.795 2.806H3.25v2.166h10.476L10.93 16.89zm9.653-13.64H5.417A2.166 2.166 0 003.25 5.417V9.75h2.167V5.417h15.166v15.166H5.417V16.25H3.25v4.333c0 1.192.964 2.167 2.167 2.167h15.166a2.173 2.173 0 002.167-2.167V5.417a2.173 2.173 0 00-2.167-2.167z"/></g><defs><clipPath id="clip0_228_1083"><path fill="#fff" d="M0 0h26v26H0z"/></clipPath></defs></svg>.225 21.775 3.25 20.5833 3.25Z" />
</g>
<defs>
<clipPath id="clip0_228_1083">
<rect width="26" height="26" fill="white"/>
</clipPath>
</defs>
</svg>
